swiss/communes/5621.svg

<?xml version="1.0" encoding="UTF-8" standalone="no"?>
<!-- Created with Inkscape (http://www.inkscape.org/) -->
<svg
   xmlns:dc="http://purl.org/dc/elements/1.1/"
   xmlns:cc="http://creativecommons.org/ns#"
   xmlns:rdf="http://www.w3.org/1999/02/22-rdf-syntax-ns#"
   xmlns:svg="http://www.w3.org/2000/svg"
   xmlns="http://www.w3.org/2000/svg"
   xmlns:xlink="http://www.w3.org/1999/xlink"
   xmlns:sodipodi="http://sodipodi.sourceforge.net/DTD/sodipodi-0.dtd"
   xmlns:inkscape="http://www.inkscape.org/namespaces/inkscape"
   width="500"
   height="627.35999"
   id="svg2"
   sodipodi:version="0.32"
   inkscape:version="0.46"
   version="1.0"
   sodipodi:docname="Wappen Aclens.svg"
   inkscape:output_extension="org.inkscape.output.svg.inkscape">
  <defs
     id="defs4">
    <inkscape:perspective
       sodipodi:type="inkscape:persp3d"
       inkscape:vp_x="0 : 526.18109 : 1"
       inkscape:vp_y="0 : 1000 : 0"
       inkscape:vp_z="744.09448 : 526.18109 : 1"
       inkscape:persp3d-origin="372.04724 : 350.78739 : 1"
       id="perspective10" />
    <inkscape:perspective
       sodipodi:type="inkscape:persp3d"
       inkscape:vp_x="0 : 420.94501 : 1"
       inkscape:vp_y="0 : 1000 : 0"
       inkscape:vp_z="595.27502 : 420.94501 : 1"
       inkscape:persp3d-origin="297.63751 : 280.63 : 1"
       id="perspective2505" />
    <radialGradient
       r="300"
       fy="579.93323"
       fx="858.04236"
       cy="579.93323"
       cx="858.04236"
       gradientTransform="matrix(1.21503,0,0,1.26667,-839.192,-490.489)"
       gradientUnits="userSpaceOnUse"
       id="radialGradient3236"
       xlink:href="#linearGradient2893"
       inkscape:collect="always" />
    <linearGradient
       id="linearGradient2955">
      <stop
         id="stop2965"
         offset="0"
         style="stop-color: white; stop-opacity: 0;" />
      <stop
         id="stop2959"
         offset="1"
         style="stop-color: black; stop-opacity: 0.645833;" />
    </linearGradient>
    <linearGradient
       id="linearGradient2893">
      <stop
         id="stop2895"
         offset="0"
         style="stop-color: rgb(255, 255, 255); stop-opacity: 0.313726;" />
      <stop
         style="stop-color: rgb(255, 255, 255); stop-opacity: 0.25098;"
         offset="0.19"
         id="stop2897" />
      <stop
         id="stop2901"
         offset="0.60000002"
         style="stop-color: rgb(107, 107, 107); stop-opacity: 0.12549;" />
      <stop
         id="stop2899"
         offset="1"
         style="stop-color: rgb(0, 0, 0); stop-opacity: 0.12549;" />
    </linearGradient>
    <inkscape:perspective
       id="perspective28"
       inkscape:persp3d-origin="301.5 : 254.33333 : 1"
       inkscape:vp_z="603 : 381.5 : 1"
       inkscape:vp_y="0 : 1000 : 0"
       inkscape:vp_x="0 : 381.5 : 1"
       sodipodi:type="inkscape:persp3d" />
    <radialGradient
       inkscape:collect="always"
       xlink:href="#linearGradient2893"
       id="radialGradient2560"
       gradientUnits="userSpaceOnUse"
       gradientTransform="matrix(1.21503,0,0,1.26667,-839.192,-490.489)"
       cx="858.04236"
       cy="579.93323"
       fx="858.04236"
       fy="579.93323"
       r="300" />
    <radialGradient
       inkscape:collect="always"
       xlink:href="#linearGradient2893"
       id="radialGradient2563"
       gradientUnits="userSpaceOnUse"
       gradientTransform="matrix(1.21503,0,0,1.26667,-1517.8364,-776.76967)"
       cx="858.04236"
       cy="579.93323"
       fx="858.04236"
       fy="579.93323"
       r="300" />
  </defs>
  <sodipodi:namedview
     id="base"
     pagecolor="#ffffff"
     bordercolor="#666666"
     borderopacity="1.0"
     inkscape:pageopacity="0.0"
     inkscape:pageshadow="2"
     inkscape:zoom="0.35"
     inkscape:cx="8.5714286"
     inkscape:cy="881.95415"
     inkscape:document-units="px"
     inkscape:current-layer="layer1"
     showgrid="false"
     inkscape:window-width="1280"
     inkscape:window-height="750"
     inkscape:window-x="-8"
     inkscape:window-y="-8" />
  <metadata
     id="metadata7">
    <rdf:RDF>
      <cc:Work
         rdf:about="">
        <dc:format>image/svg+xml</dc:format>
        <dc:type
           rdf:resource="http://purl.org/dc/dcmitype/StillImage" />
      </cc:Work>
    </rdf:RDF>
  </metadata>
  <g
     inkscape:label="Ebene 1"
     inkscape:groupmode="layer"
     id="layer1"
     transform="translate(678.64433,130.64082)">
    <g
       id="g2579"
       transform="matrix(0.7960159,0,0,0.7960159,-128.43262,107.24307)">
      <path
         d="M -677.14036,-284.77767 L -677.14036,174.09533 C -677.14036,340.40633 -542.82636,475.22633 -377.14036,475.22633 C -211.45236,475.22633 -77.14036,340.40633 -77.14036,174.09533 L -77.14036,-284.77767 L -677.14036,-284.77767 z"
         id="path2537"
         style="fill:#2b5df2" />
      <path
         d="M -377.14436,475.21933 C -211.45636,475.21933 -77.14436,340.39933 -77.14436,174.08833 L -77.14436,-284.77767 L -677.14436,-284.77767 L -677.14436,174.09533 C -677.14036,340.39733 -542.82736,475.21933 -377.14436,475.21933 z M -602.14036,-209.77767 L -152.14036,-209.77767 C -152.14036,-104.80367 -152.14036,174.09533 -152.14036,174.09533 C -152.14036,298.78333 -253.07436,400.22633 -377.14036,400.22633 C -501.20336,400.22633 -602.14036,298.78733 -602.14036,174.09533 C -602.14036,174.09233 -602.14036,-104.80367 -602.14036,-209.77767 z"
         id="path1919"
         style="fill:#ffffff" />
      <path
         d="M -504.01736,-209.77767 L -504.01736,-284.77667 L -677.14036,-284.77767 L -602.14036,-209.77767 L -504.01736,-209.77767 z M -250.26836,-284.77667 L -377.14336,-284.77667 L -377.14336,-209.77767 L -250.26836,-209.77767 L -250.26836,-284.77667 z M -602.14036,-111.77467 L -677.14036,-111.77467 L -677.14036,15.10033 L -602.14036,15.10033 L -602.14036,-111.77467 z M -77.14436,-284.77767 L -152.14136,-209.77767 L -152.14136,-111.77467 L -77.14436,-111.77467 L -77.14436,-284.77767 z M -152.14136,15.10033 L -152.14136,141.97533 L -77.14136,141.97533 L -77.14136,15.10033 L -152.14136,15.10033 z M -602.14036,141.97333 L -677.14236,141.97333 L -677.14236,174.09233 C -677.14136,218.84233 -667.40236,261.30733 -649.95636,299.48533 L -584.55336,261.72333 C -595.87436,234.76033 -602.13836,205.14933 -602.13836,174.09233 L -602.14036,141.97333 L -602.14036,141.97333 z M -541.23836,426.19433 C -494.08236,457.18233 -437.71636,475.21733 -377.14436,475.21733 L -377.14336,475.21733 L -377.14136,400.22333 C -423.99536,400.22333 -467.54536,385.74833 -503.61136,361.02233 L -541.23836,426.19433 z M -250.67236,361.02433 L -213.04736,426.19433 C -165.92436,395.22733 -128.01236,351.31733 -104.32736,299.48533 L -169.72536,261.72533 C -186.69436,302.13533 -215.02636,336.58933 -250.67236,361.02433 z"
         id="path2583"
         style="fill:#e20909" />
      <path
         d="M -677.14036,-284.77767 L -602.14036,-209.77767 M -504.01736,-209.77767 L -504.01736,-284.77667 M -250.26836,-209.77767 L -250.26836,-284.77667 M -377.14336,-284.77667 L -377.14336,-209.77767 M -677.14036,15.10033 L -602.14036,15.10033 M -602.14036,-111.77467 L -677.14036,-111.77467 M -152.14136,-111.77467 L -77.14436,-111.77467 M -77.14436,-284.77767 L -152.14136,-209.77767 M -77.14136,15.10033 L -152.14136,15.10033 M -152.14136,141.97533 L -77.14136,141.97533 M -602.13936,141.97333 L -602.13936,141.97333 L -677.14236,141.97333 M -649.95636,299.48533 L -584.55336,261.72333 M -503.61136,361.02233 L -541.23836,426.19433 M -377.14436,475.21733 L -377.14436,475.21733 L -377.14136,400.22333 M -104.32836,299.48533 L -169.72636,261.72533 M -250.67236,361.02433 L -213.04736,426.19433"
         id="path2583_1_"
         style="fill:none;stroke:#000000;stroke-width:3" />
      <path
         d="M -602.14036,-209.77767 L -152.14036,-209.77767 C -152.14036,-104.80367 -152.14036,174.09533 -152.14036,174.09533 C -152.14036,298.78333 -253.07436,400.22633 -377.14036,400.22633 C -501.20336,400.22633 -602.14036,298.78733 -602.14036,174.09533 C -602.14036,174.09233 -602.14036,-104.80367 -602.14036,-209.77767 z"
         id="path1919_2_"
         style="fill:none;stroke:#000000;stroke-width:3" />
      <path
         style="fill:#fcef3c;stroke:#000000;stroke-width:3;stroke-linecap:round;stroke-linejoin:round"
         id="path2183"
         d="M -377.14336,248.09633 C -280.20536,248.09633 -222.74236,220.30533 -222.74236,220.30533 C -207.07136,213.64133 -208.81136,175.00233 -222.74236,169.00633 C -222.74236,169.00633 -204.16936,141.02633 -223.90236,119.70733 C -223.90236,119.70733 -209.39136,90.39433 -232.02936,69.74033 C -232.02936,69.74033 -225.06336,42.42633 -245.38036,25.77133 C -245.38036,25.77133 -237.83436,-6.20767 -263.37436,-21.53167 C -263.37436,-21.53167 -263.37436,-56.17067 -290.07636,-63.50067 C -290.07636,-63.50067 -294.13936,-94.81367 -330.70836,-97.47967 C -330.70836,-97.47967 -343.47836,-124.31767 -377.14536,-124.31767 C -410.81136,-124.31767 -423.58136,-97.47967 -423.58136,-97.47967 C -460.15136,-94.81467 -464.21336,-63.50067 -464.21336,-63.50067 C -490.91436,-56.17067 -490.91436,-21.53167 -490.91436,-21.53167 C -516.45536,-6.20767 -508.90936,25.77133 -508.90936,25.77133 C -529.22636,42.42533 -522.26036,69.74033 -522.26036,69.74033 C -544.89836,90.39433 -530.38636,119.70733 -530.38636,119.70733 C -550.12236,141.02033 -531.54736,169.00633 -531.54736,169.00633 C -545.47836,175.00233 -547.22036,213.64133 -531.54736,220.30533 C -531.54436,220.30533 -474.07936,248.09633 -377.14336,248.09633 z" />
      <path
         id="path2185"
         d="M -377.14336,248.09633 C -369.74836,248.09633 -362.58936,247.93233 -355.66436,247.63133 L -355.66436,230.77233 C -355.66436,217.16133 -365.28136,206.12433 -377.14336,206.12433 C -389.00436,206.12433 -398.62036,217.16133 -398.62036,230.77233 L -398.62036,247.63133 C -391.69536,247.93233 -384.53536,248.09633 -377.14336,248.09633 z" />
      <path
         style="fill:none;stroke:#000000;stroke-width:3;stroke-linecap:round;stroke-linejoin:round"
         id="path2187"
         d="M -222.74236,169.00633 C -222.74236,169.00633 -280.20536,198.60833 -377.14336,198.60833 C -474.08036,198.60833 -531.54436,169.00633 -531.54436,169.00633" />
      <path
         style="fill:none;stroke:#000000;stroke-width:3;stroke-linecap:round;stroke-linejoin:round"
         id="path2189"
         d="M -223.90236,119.70833 C -223.90236,119.70833 -291.23636,151.49733 -377.14336,151.49733 C -463.05036,151.49733 -530.38236,119.70833 -530.38236,119.70833" />
      <path
         style="fill:none;stroke:#000000;stroke-width:3;stroke-linecap:round;stroke-linejoin:round"
         id="path2191"
         d="M -232.02936,69.74133 C -232.02936,69.74133 -299.36236,98.20033 -377.14336,98.20033 C -454.92336,98.20033 -522.25736,69.74133 -522.25736,69.74133" />
      <path
         style="fill:none;stroke:#000000;stroke-width:3;stroke-linecap:round;stroke-linejoin:round"
         id="path2193"
         d="M -245.37836,25.77233 C -245.37836,25.77233 -310.97136,50.89833 -377.14336,50.89833 C -443.31436,50.89833 -508.90536,25.77233 -508.90536,25.77233" />
      <path
         style="fill:none;stroke:#000000;stroke-width:3;stroke-linecap:round;stroke-linejoin:round"
         id="path2195"
         d="M -263.37236,-21.52867 C -263.37236,-21.52867 -313.87136,2.93033 -377.14336,2.93033 C -440.41336,2.93033 -490.91236,-21.52867 -490.91236,-21.52867" />
      <path
         style="fill:none;stroke:#000000;stroke-width:3;stroke-linecap:round;stroke-linejoin:round"
         id="path2197"
         d="M -290.07636,-63.49767 C -290.07636,-63.49767 -331.86836,-43.70067 -377.14336,-43.70067 C -422.41736,-43.70067 -464.21136,-63.49767 -464.21136,-63.49767" />
      <path
         style="fill:none;stroke:#000000;stroke-width:3;stroke-linecap:round;stroke-linejoin:round"
         id="path2199"
         d="M -330.70636,-97.47567 C -330.70636,-97.47567 -342.31336,-87.19367 -377.14336,-87.19367 C -411.97036,-87.19367 -423.57936,-97.47567 -423.57936,-97.47567" />
      <path
         style="fill:none;fill-opacity:1;stroke:#000000;stroke-width:3;stroke-miterlimit:4;stroke-dasharray:none;stroke-opacity:1"
         d="M -677.14436,-284.78067 L -677.14436,174.08727 C -677.14436,340.39787 -542.82982,475.21933 -377.14443,475.21933 C -211.45896,475.21933 -77.14436,340.39787 -77.14436,174.08727 L -77.14436,-284.78067 L -677.14436,-284.78067 z"
         id="path3239" />
    </g>
  </g>
</svg>

<svg xmlns="http://www.w3.org/2000/svg" width="500" height="627.36" version="1.0"><defs><linearGradient id="a"><stop offset="0" style="stop-color:#fff;stop-opacity:.313726"/><stop style="stop-color:#fff;stop-opacity:.25098" offset=".19"/><stop offset=".6" style="stop-color:#6b6b6b;stop-opacity:.12549"/><stop offset="1" style="stop-color:#000;stop-opacity:.12549"/></linearGradient></defs><path d="M-677.14-284.778v458.873c0 166.311 134.314 301.131 300 301.131 165.688 0 300-134.82 300-301.13v-458.874h-600z" style="fill:#2b5df2" transform="matrix(.79602 0 0 .79602 550.212 237.884)"/><path d="M-377.144 475.22c165.688 0 300-134.82 300-301.132v-458.866h-600v458.873c.004 166.302 134.317 301.124 300 301.124zM-602.14-209.779h450v383.873c0 124.688-100.934 226.131-225 226.131-124.063 0-225-101.439-225-226.13v-383.874z" style="fill:#fff" transform="matrix(.79602 0 0 .79602 550.212 237.884)"/><path d="M-504.017-209.778v-74.999H-677.14l75 75h98.123zm253.749-74.999h-126.875v75h126.875v-75zM-602.14-111.775h-75V15.1h75v-126.875zm524.996-173.003-74.997 75v98.003h74.997v-173.003zM-152.141 15.1v126.875h75V15.1h-75zm-450 126.873h-75.001v32.12c0 44.75 9.74 87.214 27.186 125.392l65.403-37.762c-11.321-26.963-17.585-56.574-17.585-87.63l-.002-32.12zm60.903 284.221c47.156 30.988 103.522 49.023 164.094 49.023l.003-74.994c-46.854 0-90.404-14.475-126.47-39.2l-37.627 65.171zm290.566-65.17 37.625 65.17c47.123-30.967 85.035-74.877 108.72-126.709l-65.398-37.76c-16.97 40.41-45.301 74.864-80.947 99.3z" style="fill:#e20909" transform="matrix(.79602 0 0 .79602 550.212 237.884)"/><path d="m-677.14-284.778 75 75m98.123 0v-74.999m253.749 75v-75m-126.875 0v75M-677.14 15.1h75m0-126.875h-75m524.999 0h74.997m0-173.003-74.997 75m75 224.878h-75m0 126.875h75m-524.998-.002h-75.003m27.186 157.512 65.403-37.762m80.942 99.3-37.627 65.171m164.094 49.023.003-74.994m272.813-100.738-65.398-37.76m-80.946 99.3 37.625 65.17M-602.14-209.778h450v383.873c0 124.688-100.934 226.131-225 226.131-124.063 0-225-101.439-225-226.13v-383.874z" style="fill:none;stroke:#000;stroke-width:3" transform="matrix(.79602 0 0 .79602 550.212 237.884)"/><path style="fill:#fcef3c;stroke:#000;stroke-width:3;stroke-linecap:round;stroke-linejoin:round" d="M-377.143 248.096c96.938 0 154.4-27.79 154.4-27.79 15.672-6.665 13.932-45.304 0-51.3 0 0 18.574-27.98-1.16-49.299 0 0 14.512-29.313-8.126-49.967 0 0 6.966-27.314-13.351-43.969 0 0 7.546-31.979-17.994-47.303 0 0 0-34.639-26.702-41.969 0 0-4.063-31.313-40.632-33.979 0 0-12.77-26.838-46.437-26.838-33.666 0-46.436 26.838-46.436 26.838-36.57 2.665-40.632 33.98-40.632 33.98-26.701 7.33-26.701 41.968-26.701 41.968-25.541 15.324-17.995 47.303-17.995 47.303-20.317 16.654-13.351 43.97-13.351 43.97-22.638 20.653-8.126 49.966-8.126 49.966-19.736 21.313-1.161 49.3-1.161 49.3-13.931 5.995-15.673 44.634 0 51.298.003 0 57.468 27.791 154.404 27.791z" transform="matrix(.79602 0 0 .79602 550.212 237.884)"/><path d="M250 435.373c5.886 0 11.585-.131 17.097-.37v-13.42c0-10.835-7.655-19.62-17.097-19.62s-17.096 8.785-17.096 19.62v13.42c5.512.239 11.211.37 17.096.37z"/><path style="fill:none;stroke:#000;stroke-width:3;stroke-linecap:round;stroke-linejoin:round" d="M-222.742 169.006s-57.463 29.602-154.401 29.602c-96.937 0-154.401-29.602-154.401-29.602M-223.902 119.708s-67.334 31.79-153.241 31.79c-85.907 0-153.24-31.79-153.24-31.79M-232.03 69.741s-67.332 28.46-145.113 28.46c-77.78 0-145.114-28.46-145.114-28.46M-245.378 25.772s-65.593 25.126-131.765 25.126c-66.171 0-131.762-25.126-131.762-25.126M-263.372-21.529s-50.5 24.46-113.771 24.46c-63.27 0-113.77-24.46-113.77-24.46M-290.076-63.498S-331.868-43.7-377.143-43.7c-45.274 0-87.068-19.797-87.068-19.797M-330.706-97.476s-11.607 10.282-46.437 10.282c-34.827 0-46.436-10.282-46.436-10.282" transform="matrix(.79602 0 0 .79602 550.212 237.884)"/><path style="fill:none;fill-opacity:1;stroke:#000;stroke-width:3;stroke-miterlimit:4;stroke-dasharray:none;stroke-opacity:1" d="M-677.144-284.78v458.867c0 166.31 134.314 301.132 300 301.132 165.685 0 300-134.821 300-301.132V-284.78h-600z" transform="matrix(.79602 0 0 .79602 550.212 237.884)"/></svg>
